X: 1
T: Pear Tree, The
M: 4/4
L: 1/8
R: reel
K: Dmaj
|:DFAG FAdf|egce fdAG|FdAF EGBE|CDEC A,2A,2|
DFAG FAdf|egce fdAG|FdAF EBGE|1D2D2D2 FE:|2D2D2D2 de||
|:f^efd AdFd|BdAd BdAd|f^efd ABcd|e^def e2 =de|
f^efd AdFd|BdAd GdFd|BcdB cdec|1d2d2d2 de:|2d2d2d2 FE||
